X:188
T:Ground Speed
C:Earl Scruggs
N:Transcribed by Tim Lee
R:bluegrass
L:1/8
Q:1/4=250
M:4/4
K:G
z4 zb c'^c' | "G"d'b ec' ae gb | ge dc BA GD | EG ED CG, ^A,B, | G,2 b2 c'2 ^c'2 | 
"G"d'b ec' ae gb | ge dc BA GD | "D7"AG AB AD =F^F | D2 B2 c2 ^c2 | "G"d2 =f2 d2 f2 | 
ge dc BA GD | "G7"EG AB dB A2 | "C"[c2E2] [cE][cE] [cE][cE] [cE]c | "G"Bd cB Ac BA | 
"D"GF ED CG, ^A,B, | "G"G,2 A,^A, B,D E2 | G2 D2 E2 =F2 | "D7"[A2F2] A2 FB zF | 
[A2F2] FB zF [A2F2] | "G"GF GA Bd BA | G2 D2 E2 =F2 | "D7"[A2F2] A2 FB zF | [A2F2] FB zF [A2F2] | 
"G"{^A}B2 Bd B=A GE | G2 D2 E2 =F2 | "D"[A2F2] [A2F2] [A2F2] [BF][BF] | [A2F2] [AF][BF] z[BF] [BF][AF] | 
"G"=F2 [A2F2] [A2F2] [BF][BF] | "G7"[A2=F2] [AF][BF] [BF][BF] [AF]A | "C"CB, CD EG ED | 
"D7"FD E=F ^F=F E2 | "G"G2 G^A B2 de | g8 | 


